; generated by PrusaSlicer 2.3.0+win64 on 2021-03-24 at 19:08:04 UTC

; 

; external perimeters extrusion width = 0.45mm
; perimeters extrusion width = 0.45mm
; infill extrusion width = 0.45mm
; solid infill extrusion width = 0.45mm
; top infill extrusion width = 0.40mm
; support material extrusion width = 0.40mm
; first layer extrusion width = 0.70mm

M73 P0 R92
M73 Q0 S92
M201 X1000 Y1000 Z200 E5000 ; sets maximum accelerations, mm/sec^2
M203 X200 Y200 Z12 E120 ; sets maximum feedrates, mm/sec
M204 P1250 R1250 T1250 ; sets acceleration (P, T) and retract acceleration (R), mm/sec^2
M205 X8.00 Y8.00 Z0.40 E4.50 ; sets the jerk limits, mm/sec
M205 S0 T0 ; sets the minimum extruding and travel feed rate, mm/sec
M107
;TYPE:Custom
M862.3 P "MK3S" ; printer model check
M862.1 P0.4 ; nozzle diameter check
M115 U3.9.2 ; tell printer latest fw version
G90 ; use absolute coordinates
M83 ; extruder relative mode
M104 S215 ; set extruder temp
M140 S60 ; set bed temp
M190 S60 ; wait for bed temp
M109 S215 ; wait for extruder temp
G28 W ; home all without mesh bed level
G80 ; mesh bed leveling
G1 Y-3.0 F1000.0 ; go outside print area
G92 E0.0
G1 X60.0 E9.0 F1000.0 ; intro line
G1 X100.0 E12.5 F1000.0 ; intro line
G92 E0.0
M221 S95

; Don't change E values below. Excessive value can damage the printer.

G21 ; set units to millimeters
G90 ; use absolute coordinates
M83 ; use relative distances for extrusion
M900 K0.05 ; Filament gcode LA 1.5
M900 K30 ; Filament gcode LA 1.0
;LAYER_CHANGE
;Z:0.35
;HEIGHT:0.35
;BEFORE_LAYER_CHANGE
G92 E0.0
;0.35


G1 E-0.80000 F2100.000
G1 Z0.400 F7800.000
;AFTER_LAYER_CHANGE
;0.35
G1 X73.492 Y91.205
G1 Z0.350
G1 E0.80000 F2100.000
;TYPE:Skirt
;WIDTH:0.7
G1 F1800.000
G1 X74.749 Y90.450 E0.13329
G1 X76.142 Y89.991 E0.13329
G1 X77.308 Y89.852 E0.10683
G1 X90.010 Y89.567 E1.15525
G1 X152.028 Y92.163 E5.64425
G1 X165.778 Y93.055 E1.25293
G1 X167.501 Y93.296 E0.15818
G1 X168.559 Y93.574 E0.09943
G1 X169.598 Y93.953 E0.10058
G1 X170.738 Y94.501 E0.11503
G1 X171.719 Y95.102 E0.10462
G1 X172.726 Y95.868 E0.11504
G1 X173.536 Y96.621 E0.10052
G1 X174.404 Y97.610 E0.11971
G1 X175.043 Y98.505 E0.09999
G1 X175.602 Y99.467 E0.10117
G1 X176.143 Y100.660 E0.11908
G1 X176.496 Y101.708 E0.10057
G1 X176.778 Y102.935 E0.11445
G1 X176.918 Y104.026 E0.10001
G1 X176.956 Y105.146 E0.10191
G1 X176.883 Y106.331 E0.10794
G1 X176.690 Y107.516 E0.10921
G1 X176.165 Y109.284 E0.16765
G1 X175.400 Y110.905 E0.16301
G1 X174.401 Y112.394 E0.16305
G1 X173.152 Y113.753 E0.16786
G1 X171.600 Y114.978 E0.17972
G1 X170.024 Y115.859 E0.16421
G1 X168.309 Y116.501 E0.16649
G1 X166.491 Y116.876 E0.16880
G1 X152.047 Y117.836 E1.31630
G1 X90.208 Y120.430 E5.62796
G1 X77.197 Y120.425 E1.18305
G1 X75.792 Y120.206 E0.12927
G1 X74.472 Y119.696 E0.12869
G1 X73.774 Y119.279 E0.07396
G1 X73.126 Y118.776 E0.07454
G1 X72.550 Y118.202 E0.07396
G1 X72.046 Y117.556 E0.07454
G1 X71.625 Y116.852 E0.07454
G1 X71.296 Y116.108 E0.07396
G1 X71.061 Y115.330 E0.07396
G1 X70.922 Y114.522 E0.07454
G1 X70.887 Y96.251 E1.66136
G1 X71.098 Y94.800 E0.13329
G1 X71.620 Y93.437 E0.13272
G1 X72.432 Y92.217 E0.13329
G1 X73.449 Y91.246 E0.12784
;WIPE_START
G1 F6240.000
G1 X74.749 Y90.450 E-0.48739
G1 X75.559 Y90.183 E-0.27261
;WIPE_END
G1 E-0.04000 F2100.000
G1 Z0.750 F7800.000
G1 X90.006 Y96.192
G1 Z0.350
G1 E0.80000 F2100.000
;TYPE:Support material
G1 F1800.000
G1 X90.006 Y99.528 E0.30329
G1 X89.407 Y99.276 E0.05911
G1 X88.756 Y99.085 E0.06165
G1 X88.756 Y96.473 E0.23744
G1 X87.507 Y96.473 E0.11364
G1 X87.507 Y98.925 E0.22295
G1 X86.773 Y98.952 E0.06672
G1 X86.257 Y99.025 E0.04744
G1 X86.257 Y96.473 E0.23205
G1 X85.007 Y96.473 E0.11364
G1 X85.007 Y99.399 E0.26603
G1 X84.430 Y99.678 E0.05834
G1 X84.054 Y99.903 E0.03978
G1 X83.757 Y100.110 E0.03291
G1 X83.757 Y96.473 E0.33068
G1 X82.508 Y96.473 E0.11364
G1 X82.508 Y101.349 E0.44329
G1 X82.193 Y101.808 E0.05060
G1 X81.972 Y102.197 E0.04067
G1 X81.777 Y102.610 E0.04158
G1 X81.616 Y103.028 E0.04068
G1 X81.487 Y103.456 E0.04068
G1 X81.389 Y103.892 E0.04067
G1 X81.324 Y104.335 E0.04068
G1 X81.287 Y104.995 E0.06015
G1 X81.307 Y105.491 E0.04510
G1 X81.367 Y105.984 E0.04519
G1 X81.468 Y106.471 E0.04520
G1 X81.608 Y106.948 E0.04519
G1 X81.786 Y107.412 E0.04519
G1 X82.002 Y107.860 E0.04520
G1 X82.254 Y108.288 E0.04519
G1 X82.508 Y108.651 E0.04027
G1 X82.508 Y113.527 E0.44331
G1 X83.757 Y113.527 E0.11364
G1 X83.757 Y109.890 E0.33067
G1 X84.407 Y110.309 E0.07032
G1 X85.007 Y110.600 E0.06062
G1 X85.007 Y113.527 E0.26612
G1 X86.257 Y113.527 E0.11364
G1 X86.257 Y110.975 E0.23203
G1 X86.774 Y111.048 E0.04748
G1 X87.507 Y111.075 E0.06667
G1 X87.507 Y113.527 E0.22291
G1 X88.756 Y113.527 E0.11364
G1 X88.756 Y110.915 E0.23747
G1 X89.453 Y110.706 E0.06611
G1 X90.006 Y110.471 E0.05467
G1 X90.006 Y113.808 E0.30340
G1 X81.258 Y113.808 F7800.000
G1 F1800.000
G1 X81.258 Y96.473 E1.57620
M73 P0 R91
G1 X80.008 Y96.473 E0.11364
G1 X80.008 Y113.527 E1.55063
G1 X78.758 Y113.527 E0.11364
G1 X78.758 Y96.473 E1.55063
G1 X77.508 Y96.473 E0.11364
G1 X77.508 Y113.808 E1.57620
;WIPE_START
G1 F6240.000
G1 X77.508 Y111.431 E-0.76000
;WIPE_END
G1 E-0.04000 F2100.000
G1 Z0.750 F7800.000
G1 X98.298 Y106.561
G1 Z0.350
G1 E0.80000 F2100.000
;TYPE:Perimeter
G1 F1800.000
G1 X98.121 Y105.858 E0.06589
G1 X98.051 Y105.230 E0.05746
G1 X98.048 Y104.836 E0.03584
G1 X98.077 Y104.442 E0.03585
G1 X98.190 Y103.804 E0.05892
G1 X98.297 Y103.432 E0.03525
G1 X98.469 Y102.985 E0.04351
G1 X98.724 Y102.479 E0.05154
G1 X98.937 Y102.143 E0.03616
G1 X99.175 Y101.828 E0.03590
G1 X99.616 Y101.353 E0.05895
G1 X99.900 Y101.104 E0.03435
G1 X100.415 Y100.738 E0.05746
G1 X100.971 Y100.438 E0.05746
G1 X101.336 Y100.287 E0.03584
G1 X101.711 Y100.167 E0.03584
G1 X102.345 Y100.032 E0.05895
G1 X102.730 Y99.991 E0.03522
G1 X103.209 Y99.984 E0.04352
G1 X103.774 Y100.030 E0.05154
G1 X104.149 Y100.099 E0.03472
G1 X104.772 Y100.279 E0.05895
G1 X105.137 Y100.427 E0.03584
G1 X105.504 Y100.612 E0.03734
G1 X105.849 Y100.822 E0.03671
G1 X106.233 Y101.107 E0.04351
G1 X106.647 Y101.484 E0.05091
G1 X106.957 Y101.832 E0.04239
G1 X107.291 Y102.290 E0.05154
G1 X107.484 Y102.619 E0.03472
G1 X107.748 Y103.194 E0.05746
G1 X107.938 Y103.796 E0.05746
G1 X108.018 Y104.182 E0.03584
G1 X108.069 Y104.587 E0.03715
G1 X108.085 Y105.026 E0.03993
G1 X108.054 Y105.550 E0.04770
G1 X107.960 Y106.114 E0.05200
G1 X107.873 Y106.443 E0.03092
G1 X107.673 Y106.991 E0.05306
G1 X107.528 Y107.299 E0.03092
G1 X107.239 Y107.788 E0.05172
G1 X106.906 Y108.231 E0.05038
G1 X106.520 Y108.641 E0.05116
G1 X106.207 Y108.914 E0.03783
G1 X105.806 Y109.205 E0.04505
G1 X105.315 Y109.487 E0.05149
G1 X104.935 Y109.657 E0.03783
G1 X104.467 Y109.819 E0.04505
G1 X103.923 Y109.945 E0.05071
G1 X103.359 Y110.011 E0.05172
G1 X103.004 Y110.020 E0.03226
G1 X102.649 Y110.002 E0.03226
G1 X102.086 Y109.922 E0.05172
G1 X101.550 Y109.784 E0.05038
G1 X101.031 Y109.588 E0.05038
G1 X100.538 Y109.336 E0.05038
G1 X100.076 Y109.031 E0.05038
G1 X99.639 Y108.669 E0.05157
G1 X99.386 Y108.414 E0.03264
G1 X98.976 Y107.910 E0.05910
G1 X98.759 Y107.581 E0.03584
G1 X98.563 Y107.220 E0.03734
G1 X98.317 Y106.617 E0.05920
G1 X97.727 Y106.823 F7800.000
G1 F1800.000
G1 X97.666 Y106.648 E0.01684
G1 X97.504 Y105.965 E0.06386
G1 X97.427 Y105.267 E0.06386
G1 X97.423 Y104.815 E0.04108
G1 X97.456 Y104.365 E0.04108
G1 X97.581 Y103.664 E0.06473
G1 X97.704 Y103.233 E0.04073
G1 X97.897 Y102.731 E0.04889
G1 X98.180 Y102.171 E0.05711
G1 X98.423 Y101.787 E0.04125
G1 X98.695 Y101.426 E0.04113
G1 X99.180 Y100.904 E0.06476
G1 X99.512 Y100.613 E0.04017
G1 X100.085 Y100.206 E0.06386
G1 X100.703 Y99.873 E0.06386
G1 X101.120 Y99.700 E0.04108
G1 X101.550 Y99.562 E0.04108
G1 X102.247 Y99.414 E0.06477
G1 X102.692 Y99.367 E0.04070
G1 X103.230 Y99.358 E0.04889
G1 X103.855 Y99.410 E0.05711
G1 X104.293 Y99.490 E0.04039
G1 X104.977 Y99.688 E0.06477
G1 X105.395 Y99.857 E0.04108
G1 X105.808 Y100.065 E0.04199
G1 X106.198 Y100.303 E0.04160
G1 X106.630 Y100.624 E0.04889
G1 X107.092 Y101.043 E0.05673
G1 X107.445 Y101.439 E0.04820
G1 X107.814 Y101.947 E0.05711
G1 X108.039 Y102.330 E0.04039
G1 X108.332 Y102.968 E0.06386
G1 X108.544 Y103.638 E0.06386
G1 X108.636 Y104.080 E0.04108
G1 X108.692 Y104.537 E0.04187
G1 X108.711 Y105.033 E0.04510
G1 X108.676 Y105.620 E0.05350
G1 X108.572 Y106.245 E0.05765
G1 X108.470 Y106.630 E0.03616
G1 X108.251 Y107.232 E0.05830
G1 X108.081 Y107.592 E0.03616
G1 X107.759 Y108.136 E0.05748
G1 X107.385 Y108.634 E0.05666
G1 X106.954 Y109.092 E0.05714
G1 X106.596 Y109.404 E0.04319
G1 X106.146 Y109.730 E0.05059
G1 X105.599 Y110.045 E0.05734
G1 X105.166 Y110.239 E0.04319
G1 X104.640 Y110.421 E0.05059
G1 X104.030 Y110.562 E0.05686
G1 X103.403 Y110.635 E0.05748
G1 X102.996 Y110.645 E0.03697
G1 X102.590 Y110.625 E0.03697
G1 X101.964 Y110.536 E0.05748
G1 X101.361 Y110.381 E0.05666
G1 X100.778 Y110.160 E0.05666
G1 X100.223 Y109.877 E0.05666
G1 X99.703 Y109.534 E0.05666
G1 X99.217 Y109.130 E0.05739
G1 X98.921 Y108.833 E0.03816
G1 X98.471 Y108.280 E0.06486
G1 X98.223 Y107.902 E0.04108
G1 X98.002 Y107.497 E0.04199
G1 X97.747 Y106.880 E0.06073
;WIPE_START
G1 F6240.000
G1 X97.666 Y106.648 E-0.07838
G1 X97.504 Y105.965 E-0.22452
G1 X97.427 Y105.267 E-0.22452
G1 X97.423 Y104.815 E-0.14443
G1 X97.443 Y104.540 E-0.08815
;WIPE_END
G1 E-0.04000 F2100.000
G1 Z0.750 F7800.000
G1 X96.887 Y106.072
G1 Z0.350
G1 E0.80000 F2100.000
;TYPE:External perimeter
G1 F1800.000
G1 X96.802 Y105.304 E0.07025
G1 X96.798 Y104.795 E0.04631
G1 X96.835 Y104.287 E0.04631
G1 X96.971 Y103.523 E0.07055
G1 X97.111 Y103.034 E0.04621
G1 X97.326 Y102.477 E0.05427
G1 X97.636 Y101.862 E0.06268
G1 X97.909 Y101.431 E0.04634
G1 X98.216 Y101.024 E0.04637
G1 X98.744 Y100.456 E0.07058
G1 X99.124 Y100.122 E0.04599
G1 X99.754 Y99.675 E0.07025
G1 X100.434 Y99.308 E0.07025
G1 X100.905 Y99.113 E0.04631
G1 X101.389 Y98.957 E0.04631
G1 X102.149 Y98.796 E0.07058
G1 X102.654 Y98.742 E0.04617
G1 X103.250 Y98.733 E0.05427
G1 X103.937 Y98.790 E0.06268
G1 X104.436 Y98.881 E0.04607
G1 X105.181 Y99.097 E0.07058
G1 X105.653 Y99.288 E0.04631
G1 X106.112 Y99.518 E0.04664
G1 X106.548 Y99.785 E0.04650
G1 X107.027 Y100.141 E0.05427
G1 X107.536 Y100.603 E0.06254
G1 X107.932 Y101.047 E0.05402
G1 X108.337 Y101.604 E0.06268
G1 X108.594 Y102.041 E0.04607
G1 X108.916 Y102.743 E0.07025
G1 X109.149 Y103.480 E0.07025
G1 X109.253 Y103.978 E0.04631
G1 X109.315 Y104.487 E0.04660
G1 X109.337 Y105.039 E0.05027
G1 X109.298 Y105.690 E0.05930
G1 X109.183 Y106.377 E0.06330
G1 X109.067 Y106.817 E0.04139
G1 X108.828 Y107.473 E0.06353
G1 X108.633 Y107.885 E0.04139
G1 X108.279 Y108.484 E0.06324
G1 X107.864 Y109.037 E0.06294
G1 X107.388 Y109.543 E0.06311
G1 X106.985 Y109.893 E0.04855
G1 X106.486 Y110.256 E0.05612
G1 X105.883 Y110.602 E0.06319
G1 X105.396 Y110.820 E0.04855
G1 X104.813 Y111.022 E0.05612
G1 X104.137 Y111.178 E0.06302
G1 X103.447 Y111.259 E0.06324
G1 X102.988 Y111.270 E0.04168
G1 X102.531 Y111.248 E0.04168
G1 X101.842 Y111.150 E0.06324
G1 X101.172 Y110.978 E0.06294
G1 X100.524 Y110.733 E0.06294
G1 X99.908 Y110.418 E0.06294
G1 X99.330 Y110.036 E0.06294
G1 X98.795 Y109.592 E0.06320
G1 X98.456 Y109.252 E0.04369
G1 X97.966 Y108.649 E0.07061
G1 X97.687 Y108.224 E0.04631
G1 X97.441 Y107.773 E0.04664
G1 X97.233 Y107.304 E0.04664
G1 X97.066 Y106.824 E0.04631
G1 X96.901 Y106.130 E0.06480
G1 X97.196 Y105.818 F7800.000
;WIPE_START
G1 F6240.000
G1 X96.802 Y105.304 E-0.26607
G1 X96.798 Y104.795 E-0.16283
G1 X96.835 Y104.287 E-0.16283
G1 X96.927 Y103.768 E-0.16827
;WIPE_END
G1 E-0.04000 F2100.000
G1 Z0.750 F7800.000
G1 X105.104 Y100.620
G1 Z0.350
G1 E0.80000 F2100.000
;TYPE:Solid infill
;WIDTH:0.723327
G1 F1800.000
G1 X106.444 Y101.960 E0.17869
G1 X106.592 Y102.126 E0.02100
G1 X106.898 Y102.547 E0.04913
G1 X107.068 Y102.836 E0.03160
G1 X107.310 Y103.363 E0.05462
G1 X107.485 Y103.918 E0.05492
G1 X104.156 Y100.589 E0.44410
G1 X103.712 Y100.496 E0.04276
G1 X103.104 Y100.454 E0.05745
G1 X107.614 Y104.963 E0.60154
G1 X107.588 Y105.497 E0.05043
G1 X107.537 Y105.803 E0.02924
G1 X102.263 Y100.529 E0.70357
G1 X101.831 Y100.620 E0.04157
G1 X101.533 Y100.716 E0.02956
G1 X107.344 Y106.527 E0.77514
G1 X107.241 Y106.810 E0.02846
G1 X107.064 Y107.163 E0.03724
G1 X100.906 Y101.006 E0.82137
G1 X100.663 Y101.137 E0.02603
G1 X100.346 Y101.362 E0.03672
G1 X106.704 Y107.720 E0.84809
G1 X106.547 Y107.929 E0.02466
G1 X106.280 Y108.213 E0.03675
G1 X99.853 Y101.786 E0.85725
G1 X99.535 Y102.129 E0.04417
G1 X99.425 Y102.275 E0.01717
G1 X105.789 Y108.638 E0.84887
G1 X105.551 Y108.811 E0.02775
G1 X105.229 Y108.996 E0.03495
G1 X99.069 Y102.836 E0.82168
G1 X98.898 Y103.176 E0.03590
G1 X98.785 Y103.468 E0.02958
G1 X104.596 Y109.279 E0.77512
G1 X104.337 Y109.368 E0.02581
G1 X103.875 Y109.475 E0.04472
G1 X98.597 Y104.197 E0.70413
G1 X98.543 Y104.501 E0.02915
G1 X98.518 Y105.035 E0.05043
G1 X103.034 Y109.550 E0.60233
G1 X102.694 Y109.535 E0.03207
G1 X102.178 Y109.462 E0.04917
G1 X101.977 Y109.410 E0.01954
G1 X98.658 Y106.091 E0.44276
G1 X98.717 Y106.341 E0.02420
G1 X98.833 Y106.672 E0.03311
G1 X98.984 Y107.013 E0.03511
G1 X99.162 Y107.340 E0.03511
G1 X99.354 Y107.633 E0.03311
G1 X99.667 Y108.017 E0.04672
G1 X101.024 Y109.374 E0.18097
;WIPE_START
G1 F6240.000
G1 X99.667 Y108.017 E-0.61340
G1 X99.378 Y107.661 E-0.14660
;WIPE_END
G1 E-0.04000 F2100.000
G1 Z0.750 F7800.000
G1 X129.287 Y105.772
G1 Z0.350
G1 E0.80000 F2100.000
;TYPE:Perimeter
;WIDTH:0.7
G1 F1800.000
G1 X129.230 Y105.262 E0.04667
G1 X129.229 Y104.751 E0.04649
G1 X129.261 Y104.402 E0.03183
G1 X129.352 Y103.902 E0.04622
G1 X129.517 Y103.357 E0.05181
G1 X129.717 Y102.890 E0.04614
G1 X129.884 Y102.583 E0.03183
G1 X130.168 Y102.156 E0.04664
G1 X130.496 Y101.763 E0.04652
G1 X130.744 Y101.516 E0.03183
G1 X131.138 Y101.189 E0.04660
G1 X131.565 Y100.906 E0.04656
G1 X131.873 Y100.740 E0.03183
G1 X132.344 Y100.538 E0.04655
G1 X132.834 Y100.389 E0.04661
G1 X133.177 Y100.317 E0.03183
G1 X133.685 Y100.259 E0.04652
G1 X134.198 Y100.256 E0.04664
G1 X134.547 Y100.285 E0.03183
G1 X135.050 Y100.375 E0.04644
G1 X135.543 Y100.518 E0.04672
G1 X135.869 Y100.645 E0.03183
G1 X136.322 Y100.873 E0.04607
G1 X136.800 Y101.184 E0.05185
G1 X137.191 Y101.509 E0.04625
G1 X137.440 Y101.755 E0.03183
G1 X137.768 Y102.146 E0.04639
G1 X138.054 Y102.573 E0.04677
G1 X138.223 Y102.880 E0.03184
G1 X138.429 Y103.358 E0.04732
G1 X138.537 Y103.691 E0.03183
G1 X138.651 Y104.187 E0.04627
G1 X138.715 Y104.754 E0.05188
G1 X138.715 Y105.241 E0.04428
G1 X138.653 Y105.801 E0.05127
G1 X138.588 Y106.119 E0.02953
G1 X138.445 Y106.596 E0.04524
G1 X138.225 Y107.115 E0.05125
G1 X138.070 Y107.401 E0.02955
G1 X137.796 Y107.816 E0.04529
G1 X137.436 Y108.249 E0.05118
G1 X137.206 Y108.479 E0.02957
G1 X136.823 Y108.798 E0.04533
G1 X136.354 Y109.109 E0.05112
G1 X136.067 Y109.262 E0.02959
G1 X135.609 Y109.458 E0.04534
G1 X135.071 Y109.621 E0.05109
G1 X134.752 Y109.685 E0.02961
G1 X134.256 Y109.740 E0.04535
G1 X133.709 Y109.741 E0.04976
G1 X133.154 Y109.678 E0.05077
G1 X132.836 Y109.611 E0.02960
G1 X132.358 Y109.466 E0.04534
G1 X131.842 Y109.245 E0.05108
G1 X131.556 Y109.089 E0.02962
G1 X131.138 Y108.811 E0.04563
G1 X130.753 Y108.491 E0.04560
G1 X130.516 Y108.258 E0.03015
G1 X130.144 Y107.811 E0.05290
G1 X129.866 Y107.387 E0.04605
G1 X129.703 Y107.078 E0.03184
G1 X129.502 Y106.604 E0.04675
G1 X129.356 Y106.116 E0.04640
G1 X129.298 Y105.831 E0.02638
G1 X128.686 Y105.954 F7800.000
G1 F1800.000
G1 X128.605 Y105.297 E0.06017
G1 X128.604 Y104.723 E0.05220
G1 X128.641 Y104.318 E0.03700
G1 X128.743 Y103.756 E0.05199
G1 X128.928 Y103.142 E0.05824
G1 X129.154 Y102.617 E0.05198
G1 X129.349 Y102.260 E0.03700
G1 X129.667 Y101.782 E0.05223
G1 X130.035 Y101.341 E0.05221
G1 X130.323 Y101.054 E0.03700
G1 X130.765 Y100.687 E0.05222
G1 X131.243 Y100.369 E0.05222
G1 X131.602 Y100.176 E0.03700
G1 X132.130 Y99.950 E0.05221
G1 X132.679 Y99.783 E0.05223
G1 X133.077 Y99.700 E0.03700
G1 X133.648 Y99.635 E0.05221
G1 X134.222 Y99.631 E0.05223
G1 X134.628 Y99.665 E0.03700
G1 X135.192 Y99.765 E0.05216
G1 X135.744 Y99.926 E0.05227
G1 X136.123 Y100.074 E0.03700
G1 X136.634 Y100.330 E0.05194
G1 X137.171 Y100.680 E0.05828
G1 X137.611 Y101.045 E0.05199
