; generated by PrusaSlicer 2.3.0+win64 on 2021-03-05 at 11:35:07 UTC

; 

; external perimeters extrusion width = 0.45mm
; perimeters extrusion width = 0.45mm
; infill extrusion width = 0.45mm
; solid infill extrusion width = 0.45mm
; top infill extrusion width = 0.40mm
; first layer extrusion width = 0.70mm

M107
M104 S200 ; set temperature
;TYPE:Custom
G28 ; home all axes
G1 Z5 F5000 ; lift nozzle
M109 S200 ; set temperature and wait for it to be reached
G21 ; set units to millimeters
G90 ; use absolute coordinates
M82 ; use absolute distances for extrusion
G92 E0
; Filament gcode
;LAYER_CHANGE
;Z:0.35
;HEIGHT:0.35
G1 Z0.350 F7800.000
G1 E-2.00000 F2400.000
G92 E0
G1 X86.823 Y73.641 F7800.000
G1 E2.00000 F2400.000
;TYPE:Skirt
;WIDTH:0.7
G1 F1800.000
G1 X87.441 Y73.046 E2.07800
G1 X88.136 Y72.533 E2.15658
G1 X88.892 Y72.114 E2.23516
G1 X89.696 Y71.797 E2.31375
G1 X118.756 Y63.417 E5.06382
G1 X120.143 Y63.254 E5.19079
G1 X132.724 Y63.254 E6.33482
G1 X133.750 Y63.334 E6.42839
G1 X134.757 Y63.575 E6.52254
G1 X135.714 Y63.970 E6.61669
G1 X136.593 Y64.505 E6.71027
G1 X137.379 Y65.170 E6.80385
G1 X138.055 Y65.954 E6.89800
G1 X138.602 Y66.834 E6.99215
G1 X139.002 Y67.782 E7.08572
G1 X139.245 Y68.743 E7.17584
G1 X139.341 Y69.735 E7.26653
G1 X139.327 Y83.063 E8.47846
G1 X139.068 Y84.494 E8.61060
G1 X130.529 Y112.622 E11.28354
G1 X129.953 Y113.922 E11.41281
G1 X129.114 Y115.069 E11.54208
G1 X128.319 Y115.809 E11.64084
G1 X127.419 Y116.406 E11.73903
G1 X82.380 Y140.927 E16.40207
G1 X81.548 Y141.308 E16.48526
G1 X80.491 Y141.607 E16.58518
G1 X79.399 Y141.728 E16.68509
G1 X66.760 Y141.715 E17.83428
G1 X65.662 Y141.546 E17.93535
G1 X64.613 Y141.197 E18.03584
G1 X63.637 Y140.680 E18.13633
G1 X62.755 Y140.002 E18.23740
G1 X61.930 Y139.097 E18.34883
G1 X61.288 Y138.060 E18.45969
G1 X60.845 Y136.917 E18.57113
G1 X60.621 Y135.713 E18.68256
G1 X60.595 Y122.941 E19.84390
G1 X60.708 Y121.880 E19.94093
G1 X60.991 Y120.844 E20.03854
G1 X61.395 Y119.946 E20.12808
G1 X85.906 Y74.927 E24.78904
G1 X86.788 Y73.690 E24.92722
G1 E22.92722 F2400.000
G92 E0
G1 X122.497 Y72.306 F7800.000
G1 E2.00000 F2400.000
;TYPE:Perimeter
G1 F1800.000
G1 X130.018 Y72.306 E2.68386
G1 X130.018 Y79.867 E3.37133
G1 X122.497 Y79.867 E4.05519
G1 X122.497 Y72.366 E4.73721
G1 X123.122 Y72.931 F7800.000
G1 F1800.000
G1 X129.393 Y72.931 E5.30742
G1 X129.393 Y79.242 E5.88125
G1 X123.122 Y79.242 E6.45147
G1 X123.122 Y72.991 E7.01985
G1 X123.747 Y73.556 F7800.000
;TYPE:External perimeter
G1 F1800.000
G1 X128.768 Y73.556 E7.47642
G1 X128.768 Y78.617 E7.93661
G1 X123.747 Y78.617 E8.39319
G1 X123.747 Y73.616 E8.84792
G1 X123.644 Y73.170 F7800.000
G1 E6.84792 F2400.000
G92 E0
G1 X122.418 Y80.806 F7800.000
G1 E2.00000 F2400.000
;TYPE:Perimeter
G1 F1800.000
G1 X122.418 Y84.806 E2.36372
G1 X118.418 Y84.806 E2.72744
G1 X118.418 Y88.806 E3.09116
G1 X114.418 Y88.806 E3.45487
G1 X114.418 Y96.185 E4.12578
G1 X118.418 Y96.185 E4.48950
G1 X118.418 Y104.639 E5.25829
G1 X122.418 Y104.639 E5.62201
G1 X122.418 Y108.806 E6.00090
G1 X118.018 Y108.806 E6.40103
G1 X118.018 Y104.806 E6.76475
G1 X114.018 Y104.806 E7.12847
G1 X114.018 Y101.040 E7.47095
G1 X106.175 Y101.040 E8.18412
G1 X106.175 Y104.806 E8.52659
G1 X102.162 Y104.806 E8.89148
G1 X102.162 Y109.306 E9.30067
G1 X97.918 Y109.306 E9.68653
G1 X97.918 Y112.806 E10.00479
G1 X93.918 Y112.806 E10.36851
G1 X93.918 Y117.306 E10.77769
G1 X89.918 Y117.306 E11.14141
G1 X89.918 Y121.306 E11.50513
G1 X85.918 Y121.306 E11.86884
G1 X85.918 Y125.306 E12.23256
G1 X81.918 Y125.306 E12.59628
G1 X81.918 Y129.306 E12.96000
G1 X77.418 Y129.306 E13.36918
G1 X77.418 Y133.306 E13.73290
G1 X69.018 Y133.306 E14.49675
G1 X69.018 Y124.906 E15.26060
G1 X73.018 Y124.906 E15.62432
G1 X73.018 Y120.406 E16.03350
G1 X77.018 Y120.406 E16.39722
G1 X77.018 Y116.406 E16.76094
G1 X81.018 Y116.406 E17.12465
G1 X81.018 Y112.406 E17.48837
G1 X85.518 Y112.406 E17.89756
G1 X85.518 Y108.406 E18.26127
G1 X89.518 Y108.406 E18.62499
G1 X89.518 Y104.406 E18.98871
G1 X93.518 Y104.406 E19.35243
G1 X93.518 Y100.406 E19.71615
G1 X97.518 Y100.406 E20.07987
G1 X97.518 Y96.406 E20.44358
G1 X101.518 Y96.406 E20.80730
G1 X101.518 Y88.806 E21.49833
G1 X97.518 Y88.806 E21.86205
G1 X97.518 Y84.306 E22.27123
G1 X93.518 Y84.306 E22.63495
G1 X93.518 Y79.906 E23.03508
G1 X97.918 Y79.906 E23.43521
G1 X97.918 Y83.906 E23.79893
G1 X106.418 Y83.906 E24.57183
G1 X106.418 Y87.906 E24.93555
G1 X113.787 Y87.906 E25.60560
G1 X113.787 Y83.906 E25.96932
G1 X118.018 Y83.906 E26.35401
G1 X118.018 Y79.906 E26.71773
G1 X122.018 Y79.906 E27.08144
G1 X122.018 Y71.678 E27.82957
G1 X130.918 Y71.678 E28.63889
G1 X130.918 Y80.806 E29.46889
G1 X122.478 Y80.806 E30.23634
G1 X123.043 Y81.431 F7800.000
G1 F1800.000
G1 X123.043 Y85.431 E30.60006
G1 X119.043 Y85.431 E30.96378
G1 X119.043 Y89.431 E31.32749
G1 X115.043 Y89.431 E31.69121
G1 X115.043 Y95.560 E32.24848
G1 X119.043 Y95.560 E32.61220
G1 X119.043 Y104.014 E33.38099
G1 X123.043 Y104.014 E33.74471
G1 X123.043 Y109.431 E34.23724
G1 X117.393 Y109.431 E34.75101
G1 X117.393 Y105.431 E35.11473
G1 X113.393 Y105.431 E35.47845
G1 X113.393 Y101.665 E35.82093
G1 X106.799 Y101.665 E36.42046
G1 X106.799 Y105.431 E36.76293
G1 X102.787 Y105.431 E37.12782
G1 X102.787 Y109.931 E37.53701
G1 X98.543 Y109.931 E37.92287
G1 X98.543 Y113.431 E38.24113
G1 X94.543 Y113.431 E38.60485
G1 X94.543 Y117.931 E39.01403
G1 X90.543 Y117.931 E39.37775
G1 X90.543 Y121.931 E39.74147
G1 X86.543 Y121.931 E40.10518
G1 X86.543 Y125.931 E40.46890
G1 X82.543 Y125.931 E40.83262
G1 X82.543 Y129.931 E41.19634
G1 X78.043 Y129.931 E41.60552
G1 X78.043 Y133.931 E41.96924
G1 X68.393 Y133.931 E42.84673
G1 X68.393 Y124.281 E43.72422
G1 X72.393 Y124.281 E44.08794
G1 X72.393 Y119.781 E44.49712
G1 X76.393 Y119.781 E44.86084
G1 X76.393 Y115.781 E45.22456
G1 X80.393 Y115.781 E45.58828
G1 X80.393 Y111.781 E45.95200
G1 X84.893 Y111.781 E46.36118
G1 X84.893 Y107.781 E46.72490
G1 X88.893 Y107.781 E47.08862
G1 X88.893 Y103.781 E47.45233
G1 X92.893 Y103.781 E47.81605
G1 X92.893 Y99.781 E48.17977
G1 X96.893 Y99.781 E48.54349
G1 X96.893 Y95.781 E48.90721
G1 X100.893 Y95.781 E49.27093
G1 X100.893 Y89.431 E49.84831
G1 X96.893 Y89.431 E50.21203
G1 X96.893 Y84.931 E50.62121
G1 X92.893 Y84.931 E50.98493
G1 X92.893 Y79.281 E51.49870
G1 X98.543 Y79.281 E52.01247
G1 X98.543 Y83.281 E52.37619
G1 X107.043 Y83.281 E53.14909
G1 X107.043 Y87.281 E53.51281
G1 X113.162 Y87.281 E54.06922
G1 X113.162 Y83.281 E54.43294
G1 X117.393 Y83.281 E54.81763
G1 X117.393 Y79.281 E55.18135
G1 X121.393 Y79.281 E55.54507
G1 X121.393 Y71.053 E56.29320
G1 X131.543 Y71.053 E57.21615
G1 X131.543 Y81.431 E58.15980
G1 X123.103 Y81.431 E58.92725
G1 X123.668 Y82.056 F7800.000
;TYPE:External perimeter
G1 F1800.000
G1 X123.668 Y86.056 E59.29096
G1 X119.668 Y86.056 E59.65468
G1 X119.668 Y90.056 E60.01840
G1 X115.668 Y90.056 E60.38212
G1 X115.668 Y94.935 E60.82574
G1 X119.668 Y94.935 E61.18946
G1 X119.668 Y103.390 E61.95825
G1 X123.668 Y103.390 E62.32197
G1 X123.668 Y110.056 E62.92815
G1 X116.768 Y110.056 E63.55556
G1 X116.768 Y106.056 E63.91928
G1 X112.768 Y106.056 E64.28300
G1 X112.768 Y102.290 E64.62548
G1 X107.424 Y102.290 E65.11136
G1 X107.424 Y106.056 E65.45384
G1 X103.411 Y106.056 E65.81873
G1 X103.411 Y110.556 E66.22791
G1 X99.168 Y110.556 E66.61378
G1 X99.168 Y114.056 E66.93203
G1 X95.168 Y114.056 E67.29575
G1 X95.168 Y118.556 E67.70494
G1 X91.168 Y118.556 E68.06865
G1 X91.168 Y122.556 E68.43237
G1 X87.168 Y122.556 E68.79609
G1 X87.168 Y126.556 E69.15981
G1 X83.168 Y126.556 E69.52353
G1 X83.168 Y130.556 E69.88725
G1 X78.668 Y130.556 E70.29643
G1 X78.668 Y134.556 E70.66015
G1 X67.768 Y134.556 E71.65128
G1 X67.768 Y123.656 E72.64241
G1 X71.768 Y123.656 E73.00613
G1 X71.768 Y119.156 E73.41531
G1 X75.768 Y119.156 E73.77903
G1 X75.768 Y115.156 E74.14275
G1 X79.768 Y115.156 E74.50647
G1 X79.768 Y111.156 E74.87019
G1 X84.268 Y111.156 E75.27937
G1 X84.268 Y107.156 E75.64309
G1 X88.268 Y107.156 E76.00681
G1 X88.268 Y103.156 E76.37052
G1 X92.268 Y103.156 E76.73424
G1 X92.268 Y99.156 E77.09796
G1 X96.268 Y99.156 E77.46168
G1 X96.268 Y95.156 E77.82540
G1 X100.268 Y95.156 E78.18912
G1 X100.268 Y90.056 E78.65286
G1 X96.268 Y90.056 E79.01658
G1 X96.268 Y85.556 E79.42576
G1 X92.268 Y85.556 E79.78948
G1 X92.268 Y78.656 E80.41689
G1 X99.168 Y78.656 E81.04430
G1 X99.168 Y82.656 E81.40802
G1 X107.668 Y82.656 E82.18092
G1 X107.668 Y86.656 E82.54464
G1 X112.537 Y86.656 E82.98741
G1 X112.537 Y82.656 E83.35113
G1 X116.768 Y82.656 E83.73582
G1 X116.768 Y78.656 E84.09954
G1 X120.768 Y78.656 E84.46326
G1 X120.768 Y70.428 E85.21139
G1 X132.168 Y70.428 E86.24798
G1 X132.168 Y82.056 E87.30527
G1 X123.728 Y82.056 E88.07272
G1 X123.287 Y82.179 F7800.000
G1 E86.07272 F2400.000
G92 E0
G1 X122.434 Y80.336 F7800.000
G1 E2.00000 F2400.000
;TYPE:Gap fill
;WIDTH:0.350667
G1 F1800.000
G1 X130.330 Y80.336 E2.31662
G1 X130.432 Y80.320 E2.32075
G1 X130.468 Y80.179 E2.32658
G1 X130.468 Y71.991 E2.65491
G1 E0.65491 F2400.000
G92 E0
G1 X120.981 Y80.093 F7800.000
G1 E2.00000 F2400.000
;TYPE:Solid infill
;WIDTH:0.700852
G1 F1800.000
G1 X121.949 Y81.061 E2.12465
G1 X121.949 Y81.946 E2.20523
G1 X120.378 Y80.374 E2.40762
G1 X119.493 Y80.374 E2.48820
G1 X121.949 Y82.831 E2.80454
G1 X121.949 Y83.716 E2.88512
G1 X118.608 Y80.374 E3.31541
G1 X118.486 Y80.374 E3.32648
G1 X118.486 Y81.138 E3.39599
G1 X121.686 Y84.338 E3.80802
G1 X120.801 Y84.338 E3.88859
G1 X118.486 Y82.023 E4.18667
G1 X118.486 Y82.908 E4.26725
G1 X119.916 Y84.338 E4.45138
G1 X119.031 Y84.338 E4.53195
G1 X118.205 Y83.511 E4.63834
G1 X117.017 Y84.093 F7800.000
G1 F1800.000
G1 X117.949 Y85.026 E4.75840
G1 X117.949 Y85.911 E4.83898
G1 X116.413 Y84.374 E5.03678
G1 X115.528 Y84.374 E5.11736
G1 X117.949 Y86.796 E5.42912
G1 X117.949 Y87.680 E5.50969
G1 X114.643 Y84.374 E5.93540
G1 X114.256 Y84.374 E5.97072
G1 X114.256 Y84.872 E6.01598
G1 X117.722 Y88.338 E6.46230
G1 X116.837 Y88.338 E6.54287
G1 X114.256 Y85.756 E6.87524
G1 X114.256 Y86.641 E6.95582
G1 X115.952 Y88.338 E7.17423
G1 X115.067 Y88.338 E7.25481
G1 X113.974 Y87.245 E7.39548
G1 X113.053 Y88.093 F7800.000
G1 F1800.000
G1 X113.949 Y88.990 E7.51096
G1 X113.949 Y89.875 E7.59154
G1 X112.449 Y88.374 E7.78475
G1 X111.564 Y88.374 E7.86533
G1 X113.949 Y90.760 E8.17250
G1 X113.949 Y91.645 E8.25308
G1 X110.679 Y88.374 E8.67420
G1 X109.794 Y88.374 E8.75478
G1 X113.949 Y92.530 E9.28985
G1 X113.949 Y93.415 E9.37043
G1 X108.909 Y88.374 E10.01945
G1 X108.024 Y88.374 E10.10003
G1 X113.949 Y94.300 E10.86301
G1 X113.949 Y95.185 E10.94359
G1 X106.858 Y88.093 E11.85673
G1 E9.85673 F2400.000
G92 E0
G1 X106.231 Y84.811 F7800.000
G1 E2.00000 F2400.000
G1 F1800.000
G1 X105.794 Y84.374 E2.05621
G1 X104.909 Y84.374 E2.13678
G1 X105.949 Y85.415 E2.27074
G1 X105.949 Y86.300 E2.35131
G1 X104.024 Y84.374 E2.59921
G1 X103.139 Y84.374 E2.67979
G1 X106.231 Y87.466 E3.07785
G1 E1.07785 F2400.000
G92 E0
G1 X118.231 Y97.696 F7800.000
G1 E2.00000 F2400.000
G1 F1800.000
G1 X117.188 Y96.653 E2.13426
G1 X116.303 Y96.653 E2.21484
G1 X117.949 Y98.300 E2.42684
G1 X117.949 Y99.185 E2.50742
G1 X115.137 Y96.372 E2.86959
G1 E0.86959 F2400.000
G92 E0
G1 X118.231 Y100.351 F7800.000
G1 E2.00000 F2400.000
G1 F1800.000
G1 X114.533 Y96.653 E2.47612
G1 X113.949 Y96.653 E2.52927
G1 X113.949 Y96.069 E2.58242
G1 X102.254 Y84.374 E4.08838
G1 X101.369 Y84.374 E4.16896
G1 X117.949 Y100.954 E6.30394
G1 X117.949 Y101.839 E6.38452
G1 X100.485 Y84.374 E8.63346
G1 X99.600 Y84.374 E8.71403
G1 X117.949 Y102.724 E11.07693
G1 X117.949 Y103.609 E11.15750
G1 X98.715 Y84.374 E13.63434
G1 X97.986 Y84.374 E13.70067
G1 X97.986 Y84.531 E13.71492
G1 X117.793 Y104.338 E16.26540
G1 X116.908 Y104.338 E16.34598
G1 X114.486 Y101.916 E16.65781
G1 X114.486 Y102.801 E16.73839
G1 X116.023 Y104.338 E16.93628
G1 X115.138 Y104.338 E17.01685
G1 X114.205 Y103.405 E17.13700
G1 E15.13700 F2400.000
G92 E0
G1 X113.423 Y100.852 F7800.000
G1 E2.00000 F2400.000
G1 F1800.000
G1 X101.986 Y89.416 E3.47266
G1 X101.986 Y90.301 E3.55324
G1 X112.257 Y100.571 E4.87574
G1 X111.372 Y100.571 E4.95632
G1 X101.986 Y91.186 E6.16487
G1 X101.986 Y92.071 E6.24545
G1 X110.487 Y100.571 E7.34004
G1 X109.602 Y100.571 E7.42062
G1 X101.986 Y92.956 E8.40127
G1 X101.986 Y93.841 E8.48184
G1 X108.717 Y100.571 E9.34854
G1 X107.832 Y100.571 E9.42912
G1 X101.986 Y94.725 E10.18186
G1 X101.986 Y95.610 E10.26244
G1 X106.947 Y100.571 E10.90123
G1 X106.062 Y100.571 E10.98180
G1 X101.986 Y96.495 E11.50664
G1 X101.986 Y96.874 E11.54116
G1 X101.480 Y96.874 E11.58722
G1 X105.706 Y101.100 E12.13133
G1 X105.706 Y101.985 E12.21190
G1 X100.596 Y96.874 E12.86997
G1 X99.711 Y96.874 E12.95054
G1 X105.706 Y102.870 E13.72255
G1 X105.706 Y103.755 E13.80313
G1 X98.826 Y96.874 E14.68910
G1 X97.986 Y96.874 E14.76552
G1 X97.986 Y96.920 E14.76967
G1 X105.404 Y104.338 E15.72483
G1 X104.519 Y104.338 E15.80540
G1 X97.986 Y97.805 E16.64661
G1 X97.986 Y98.690 E16.72718
G1 X103.634 Y104.338 E17.45443
G1 X102.749 Y104.338 E17.53501
G1 X97.986 Y99.575 E18.14831
G1 X97.986 Y100.460 E18.22888
G1 X101.864 Y104.338 E18.72823
G1 X101.693 Y104.338 E18.74381
G1 X101.693 Y105.051 E18.80881
G1 X97.516 Y100.874 E19.34667
G1 X96.631 Y100.874 E19.42725
G1 X101.693 Y105.936 E20.07906
G1 X101.693 Y106.821 E20.15964
G1 X95.746 Y100.874 E20.92541
G1 X94.861 Y100.874 E21.00598
G1 X101.693 Y107.706 E21.88570
G1 X101.693 Y108.591 E21.96628
G1 X93.986 Y100.884 E22.95867
G1 X93.986 Y101.769 E23.03925
G1 X101.055 Y108.838 E23.94942
G1 X100.170 Y108.838 E24.03000
G1 X93.986 Y102.654 E24.82622
G1 X93.986 Y103.539 E24.90679
G1 X99.285 Y108.838 E25.58906
G1 X98.400 Y108.838 E25.66964
G1 X93.986 Y104.424 E26.23796
G1 X93.986 Y104.874 E26.27896
G1 X93.552 Y104.874 E26.31853
G1 X97.515 Y108.838 E26.82887
G1 X97.449 Y108.838 E26.83482
G1 X97.449 Y109.657 E26.90944
G1 X92.667 Y104.874 E27.52531
G1 X91.782 Y104.874 E27.60588
G1 X97.449 Y110.542 E28.33570
G1 X97.449 Y111.427 E28.41627
G1 X90.897 Y104.874 E29.26004
G1 X90.012 Y104.874 E29.34062
G1 X97.449 Y112.312 E30.29834
G1 X97.449 Y112.338 E30.30067
G1 X96.590 Y112.338 E30.37891
G1 X89.986 Y105.734 E31.22929
G1 X89.986 Y106.619 E31.30986
G1 X95.705 Y112.338 E32.04629
G1 X94.820 Y112.338 E32.12686
G1 X89.986 Y107.504 E32.74934
G1 X89.986 Y108.389 E32.82991
G1 X93.935 Y112.338 E33.33843
G1 X93.449 Y112.338 E33.38268
G1 X93.449 Y112.737 E33.41901
G1 X89.587 Y108.874 E33.91633
G1 X88.702 Y108.874 E33.99691
G1 X93.449 Y113.622 E34.60819
G1 X93.449 Y114.506 E34.68876
G1 X87.817 Y108.874 E35.41399
G1 X86.933 Y108.874 E35.49457
G1 X93.449 Y115.391 E36.33375
G1 X93.449 Y116.276 E36.41433
G1 X86.048 Y108.874 E37.36746
G1 X85.986 Y108.874 E37.37304
G1 X85.986 Y109.698 E37.44804
G1 X93.126 Y116.838 E38.36738
G1 X92.241 Y116.838 E38.44796
G1 X85.986 Y110.583 E39.25335
G1 X85.986 Y111.468 E39.33393
G1 X91.356 Y116.838 E40.02537
G1 X90.471 Y116.838 E40.10595
G1 X85.986 Y112.353 E40.68344
G1 X85.986 Y112.874 E40.73093
G1 X85.623 Y112.874 E40.76402
G1 X89.586 Y116.838 E41.27435
G1 X89.449 Y116.838 E41.28679
G1 X89.449 Y117.586 E41.35492
G1 X84.738 Y112.874 E41.96161
G1 X83.853 Y112.874 E42.04219
G1 X89.449 Y118.471 E42.76283
G1 X89.449 Y119.356 E42.84341
G1 X82.968 Y112.874 E43.67800
G1 X82.083 Y112.874 E43.75858
G1 X89.449 Y120.241 E44.70713
G1 X89.449 Y120.838 E44.76148
G1 X89.161 Y120.838 E44.78770
G1 X81.486 Y113.162 E45.77602
G1 X81.486 Y114.047 E45.85660
G1 X88.276 Y120.838 E46.73096
G1 X87.392 Y120.838 E46.81154
G1 X81.486 Y114.932 E47.57195
G1 X81.486 Y115.817 E47.65253
G1 X86.507 Y120.838 E48.29899
G1 X85.622 Y120.838 E48.37957
G1 X81.486 Y116.702 E48.91208
G1 X81.486 Y116.874 E48.92776
G1 X80.774 Y116.874 E48.99265
G1 X85.449 Y121.550 E49.59476
G1 X85.449 Y122.435 E49.67533
G1 X79.889 Y116.874 E50.39139
G1 X79.004 Y116.874 E50.47197
G1 X85.449 Y123.320 E51.30197
G1 X85.449 Y124.205 E51.38255
G1 X78.119 Y116.874 E52.32651
G1 X77.486 Y116.874 E52.38410
G1 X77.486 Y117.127 E52.40709
G1 X85.197 Y124.838 E53.39999
G1 X84.312 Y124.838 E53.48057
G1 X77.486 Y118.012 E54.35952
G1 X77.486 Y118.897 E54.44009
G1 X83.427 Y124.838 E55.20509
G1 X82.542 Y124.838 E55.28567
G1 X77.486 Y119.782 E55.93672
G1 X77.486 Y120.667 E56.01729
